src/assets/logos/coingecko.svg

<svg width="357" height="96" fill="none" xmlns="http://www.w3.org/2000/svg"><g clip-path="url(#a)"><path d="M95.3201 47.7848c.1169 26.5083-21.1246 48.097-47.4444 48.2147C21.5525 96.1172.1207 74.7236.0005 48.2152-.1164 21.7035 21.125.1182 47.445.0005 73.7681-.1172 95.2 21.273 95.3168 47.7848h.0033Z" fill="#8DC63F"/><path d="M91.7276 47.7979c.1102 24.5143-19.532 44.4754-43.8686 44.5864-24.3399.111-44.159-19.6719-44.2692-44.1862-.1102-24.5142 19.532-44.4754 43.8719-44.5863 24.3366-.1076 44.1558 19.6719 44.2659 44.1861Z" fill="#F9E988"/><path d="M48.4633 6.4873c2.7778-.5481 5.6626-.4741 8.4739-.0168 2.8112.4741 5.5824 1.3485 8.0899 2.7272 2.5108 1.3921 4.6843 3.2786 6.8479 5.0508 2.1569 1.7923 4.3137 3.5813 6.3604 5.5485 2.0667 1.947 3.9198 4.1563 5.4222 6.5976 1.5292 2.4212 2.8614 4.9903 3.803 7.7108 1.8396 5.4442 2.4773 11.3122 1.5625 16.9077h-.2838c-.9215-5.5485-2.1735-10.8313-4.1268-15.8619-.9515-2.5153-1.9799-5.0105-3.2586-7.3913-1.3055-2.3606-2.7011-4.691-4.2871-6.9306-1.6026-2.2194-3.5057-4.2605-5.7494-5.8444-2.237-1.604-4.8112-2.6464-7.2986-3.6351-2.4941-1.0021-4.9782-1.9672-7.5658-2.717-2.5842-.7701-5.2319-1.3149-7.9897-1.863V6.484v.0033Z" fill="#fff"/><path d="M70.0087 32.1144c-3.1986-.9314-6.5107-2.2563-9.8695-3.5913-.1937-.8475-.9382-1.9033-2.4474-3.198-2.1936-1.9168-6.3137-1.8663-9.8728-1.0189-3.9298-.9315-7.8128-1.2644-11.5389-.3632-30.47 8.4573-13.195 29.0809-24.3834 49.8188 1.5926 3.3997 18.7508 23.2465 43.5782 17.9199 0 0-8.4906-20.5496 10.6708-30.4158 15.5422-7.9999 26.7706-22.8564 3.8597-29.1548l.0033.0033Z" fill="#8BC53F"/><path d="M73.7681 45.6293c0 1.0256-.8213 1.8629-1.8397 1.8663-1.0183.0067-1.8497-.8239-1.8563-1.8529-.0067-1.0256.818-1.8629 1.8396-1.8663 1.0184-.0067 1.8497.8239 1.8564 1.8495v.0034Z" fill="#fff"/><path d="M47.8189 24.3101c2.2203.158 10.2468 2.7978 12.3169 4.2135-1.7162-5.0441-7.5357-5.7133-12.3169-4.2135Z" fill="#009345"/><path d="M49.9291 37.0607c0 4.7415-3.8163 8.5817-8.5206 8.5817-4.7044 0-8.5207-3.8402-8.5207-8.5817 0-4.7414 3.8163-8.5783 8.5207-8.5783 4.7043 0 8.5206 3.8403 8.5206 8.5783Z" fill="#fff"/><path d="M47.4049 37.1416c0 3.3324-2.6844 6.036-5.9932 6.036-3.3087 0-5.9931-2.7002-5.9931-6.036 0-3.3359 2.6844-6.0361 5.9931-6.0361 3.3088 0 5.9932 2.7036 5.9932 6.0361Z" fill="#58595B"/><path d="M80.6726 49.4091c-6.9013 4.8995-14.7575 8.6153-25.8924 8.6153-5.2119 0-6.2703-5.5787-9.7159-2.8448-1.7796 1.4123-8.0499 4.5699-13.0281 4.3312-5.0216-.2421-13.038-3.1812-15.2917-13.878-.8915 10.6968-1.3456 18.5791-5.3354 27.6113 7.943 12.8086 26.8774 22.6883 44.0656 18.4412-1.8464-12.9902 9.4254-25.7114 15.7758-32.2216 2.404-2.4649 7.0115-6.4901 9.4221-10.0546Z" fill="#8BC53F"/><path d="M80.4023 49.7321c-2.1435 1.9672-4.6944 3.4266-7.292 4.7111-2.6243 1.2476-5.3587 2.2631-8.1834 2.9996-2.8146.7331-5.7561 1.2845-8.7343 1.0155-2.9248-.2589-6.0165-1.2946-7.9898-3.5376l.0935-.1076c2.434 1.5805 5.2085 2.1354 7.9831 2.2161 2.7746.074 5.6025-.1345 8.3904-.7028 2.7813-.5784 5.5124-1.4426 8.1534-2.5389 2.6343-1.0962 5.2386-2.364 7.4856-4.1664l.0902.1076.0033.0034Z" fill="#58595B"/><path d="M145.13 41.8963c-.978-3.8504-3.449-6.665-8.297-6.665-7.132 0-10.116 6.3388-10.116 12.7683s2.984 12.7683 10.116 12.7683c5.175 0 8.017-3.8974 8.484-8.7801h5.686c-.467 8.0268-6.107 13.5686-14.17 13.5686-9.976 0-15.943-7.9798-15.943-17.5602 0-9.5804 5.967-17.5567 15.943-17.5567 7.506.047 13.425 4.2269 14.123 11.4568h-5.826ZM154.455 52.6032c0-7.4181 4.427-12.7682 12.167-12.7682 7.739 0 12.166 5.3534 12.166 12.7682 0 7.4148-4.427 12.8154-12.166 12.8154-7.74 0-12.167-5.3535-12.167-12.8154Zm19.018 0c0-4.1798-2.097-8.5447-6.851-8.5447-4.755 0-6.852 4.3649-6.852 8.5447 0 4.1799 2.097 8.5918 6.852 8.5918 4.754 0 6.851-4.3648 6.851-8.5918ZM183.356 31.2402h5.315v5.071h-5.315v-5.071Zm0 9.2475h5.315v24.2722h-5.315V40.4877ZM194.451 40.4907h5.035v3.5678l.093.0942c1.586-2.6767 4.334-4.3177 7.506-4.3177 5.222 0 8.53 2.8179 8.53 8.2622v16.6656H210.3V49.5062c-.093-3.8033-1.586-5.4443-4.708-5.4443-3.542 0-5.826 2.818-5.826 6.3858v14.3185h-5.315V40.4907ZM250.993 64.7623h-3.729l-.885-3.9444c-3.122 3.5678-5.966 4.7414-10.023 4.7414-9.976 0-15.943-7.9797-15.943-17.5601 0-9.5804 5.967-17.5568 15.943-17.5568 7.272 0 13.379 3.8974 14.263 11.4568h-5.686c-.56-4.4119-4.38-6.6649-8.577-6.6649-7.132 0-10.117 6.3387-10.117 12.7682s2.985 12.7683 10.117 12.7683c5.967.0941 9.229-3.5208 9.322-9.2004h-8.858v-4.459h14.17v17.6509h.003ZM260.736 54.0083c0 3.8032 2.05 7.1828 6.481 7.1828 3.075 0 4.941-1.3619 5.873-4.0387h5.035c-1.166 5.3064-5.64 8.2622-10.908 8.2622-7.553 0-11.793-5.3063-11.793-12.7682 0-6.9003 4.474-12.8153 11.652-12.8153 7.6 0 12.261 6.9003 11.376 14.1772h-17.716Zm12.4-3.5208c-.187-3.3795-2.47-6.4329-6.06-6.4329-3.589 0-6.2 2.818-6.34 6.4329h12.4ZM298.775 48.6117c-.42-2.9592-2.564-4.5532-5.499-4.5532-2.751 0-6.621 1.4561-6.621 8.8272 0 4.0386 1.773 8.3093 6.388 8.3093 3.075 0 5.221-2.0647 5.732-5.5384h5.316c-.979 6.2916-4.848 9.7653-11.048 9.7653-7.553 0-11.7-5.4005-11.7-12.5362 0-7.1357 3.964-13.0507 11.887-13.0507 5.592 0 10.347 2.8179 10.861 8.78h-5.316v-.0033ZM308.565 31.2402h5.315v19.0599l9.602-9.8124h6.525l-9.229 8.9213 10.117 15.3509h-6.481l-7.365-11.783-3.169 3.097v8.686h-5.315V31.2402ZM332.337 52.6032c0-7.4181 4.427-12.7682 12.167-12.7682 7.739 0 12.166 5.3534 12.166 12.7682 0 7.4148-4.427 12.8154-12.166 12.8154-7.74 0-12.167-5.3535-12.167-12.8154Zm19.018 0c0-4.1798-2.097-8.5447-6.851-8.5447-4.755 0-6.852 4.3649-6.852 8.5447 0 4.1799 2.097 8.5918 6.852 8.5918 4.754 0 6.851-4.3648 6.851-8.5918Z" fill="#fff"/></g><defs><clipPath id="a"><path fill="#fff" d="M0 0h356.67v96H0z"/></clipPath></defs></svg>

<svg width="357" height="96" viewBox="0 0 357 96" fill="none" xmlns="http://www.w3.org/2000/svg">
<g clip-path="url(#clip0_238_5059)">
<path d="M95.3201 47.7848C95.437 74.2931 74.1955 95.8818 47.8757 95.9995C21.5525 96.1172 0.120677 74.7236 0.00047986 48.2152C-0.116378 21.7035 21.1251 0.118179 47.445 0.000483373C73.7681 -0.117212 95.2 21.2731 95.3168 47.7848H95.3201Z" fill="#8DC63F"/>
<path d="M91.7276 47.7979C91.8378 72.3122 72.1956 92.2733 47.859 92.3843C23.5191 92.4953 3.69994 72.7124 3.58976 48.1981C3.47957 23.6839 23.1218 3.72273 47.4617 3.61177C71.7983 3.50416 91.6175 23.2837 91.7276 47.7979Z" fill="#F9E988"/>
<path d="M48.4633 6.48732C51.2411 5.93919 54.1259 6.01317 56.9372 6.47051C59.7484 6.94465 62.5196 7.81896 65.0271 9.19767C67.5379 10.5898 69.7114 12.4763 71.875 14.2485C74.0319 16.0408 76.1887 17.8298 78.2354 19.797C80.3021 21.744 82.1552 23.9533 83.6576 26.3946C85.1868 28.8158 86.519 31.3849 87.4606 34.1054C89.3002 39.5496 89.9379 45.4176 89.0231 51.0131H88.7393C87.8178 45.4646 86.5658 40.1818 84.6125 35.1512C83.661 32.6359 82.6326 30.1407 81.3539 27.7599C80.0484 25.3993 78.6528 23.0689 77.0668 20.8293C75.4642 18.6099 73.5611 16.5688 71.3174 14.9849C69.0804 13.3809 66.5062 12.3385 64.0188 11.3498C61.5247 10.3477 59.0406 9.38262 56.453 8.63274C53.8688 7.86267 51.2211 7.31791 48.4633 6.76979V6.48396V6.48732Z" fill="white"/>
<path d="M70.0087 32.1144C66.8101 31.183 63.498 29.8581 60.1392 28.5231C59.9455 27.6756 59.201 26.6198 57.6918 25.3251C55.4982 23.4083 51.3781 23.4588 47.819 24.3062C43.8892 23.3747 40.0062 23.0418 36.2801 23.943C5.81008 32.4003 23.0851 53.0239 11.8967 73.7618C13.4893 77.1615 30.6475 97.0083 55.4749 91.6817C55.4749 91.6817 46.9843 71.1321 66.1457 61.2659C81.6879 53.266 92.9163 38.4095 70.0054 32.1111L70.0087 32.1144Z" fill="#8BC53F"/>
<path d="M73.7681 45.6293C73.7681 46.6549 72.9468 47.4922 71.9284 47.4956C70.9101 47.5023 70.0787 46.6717 70.0721 45.6427C70.0654 44.6171 70.8901 43.7798 71.9117 43.7764C72.9301 43.7697 73.7614 44.6003 73.7681 45.6259V45.6293Z" fill="white"/>
<path d="M47.8189 24.3101C50.0392 24.4681 58.0657 27.1079 60.1358 28.5236C58.4196 23.4795 52.6001 22.8103 47.8189 24.3101Z" fill="#009345"/>
<path d="M49.9291 37.0607C49.9291 41.8022 46.1128 45.6424 41.4085 45.6424C36.7041 45.6424 32.8878 41.8022 32.8878 37.0607C32.8878 32.3193 36.7041 28.4824 41.4085 28.4824C46.1128 28.4824 49.9291 32.3227 49.9291 37.0607Z" fill="white"/>
<path d="M47.4049 37.1416C47.4049 40.474 44.7205 43.1776 41.4117 43.1776C38.103 43.1776 35.4186 40.4774 35.4186 37.1416C35.4186 33.8057 38.103 31.1055 41.4117 31.1055C44.7205 31.1055 47.4049 33.8091 47.4049 37.1416Z" fill="#58595B"/>
<path d="M80.6726 49.4091C73.7713 54.3086 65.9151 58.0244 54.7802 58.0244C49.5683 58.0244 48.5099 52.4457 45.0643 55.1796C43.2847 56.5919 37.0144 59.7495 32.0362 59.5108C27.0146 59.2687 18.9982 56.3296 16.7445 45.6328C15.853 56.3296 15.3989 64.2119 11.4091 73.2441C19.3521 86.0527 38.2865 95.9324 55.4747 91.6853C53.6283 78.6951 64.9001 65.9739 71.2505 59.4637C73.6545 56.9988 78.262 52.9736 80.6726 49.4091Z" fill="#8BC53F"/>
<path d="M80.4023 49.7321C78.2588 51.6993 75.7079 53.1587 73.1103 54.4432C70.486 55.6908 67.7516 56.7063 64.9269 57.4428C62.1123 58.1759 59.1708 58.7273 56.1926 58.4583C53.2678 58.1994 50.1761 57.1637 48.2028 54.9207L48.2963 54.8131C50.7303 56.3936 53.5048 56.9485 56.2794 57.0292C59.054 57.1032 61.8819 56.8947 64.6698 56.3264C67.4511 55.748 70.1822 54.8838 72.8232 53.7875C75.4575 52.6913 78.0618 51.4235 80.3088 49.6211L80.399 49.7287L80.4023 49.7321Z" fill="#58595B"/>
<path d="M145.13 41.8963C144.152 38.0459 141.681 35.2313 136.833 35.2313C129.701 35.2313 126.717 41.5701 126.717 47.9996C126.717 54.4291 129.701 60.7679 136.833 60.7679C142.008 60.7679 144.85 56.8705 145.317 51.9878H151.003C150.536 60.0146 144.896 65.5564 136.833 65.5564C126.857 65.5564 120.89 57.5766 120.89 47.9962C120.89 38.4158 126.857 30.4395 136.833 30.4395C144.339 30.4865 150.258 34.6664 150.956 41.8963H145.13Z" fill="white"/>
<path d="M154.455 52.6032C154.455 45.1851 158.882 39.835 166.622 39.835C174.361 39.835 178.788 45.1884 178.788 52.6032C178.788 60.018 174.361 65.4186 166.622 65.4186C158.882 65.4186 154.455 60.0651 154.455 52.6032ZM173.473 52.6032C173.473 48.4234 171.376 44.0585 166.622 44.0585C161.867 44.0585 159.77 48.4234 159.77 52.6032C159.77 56.7831 161.867 61.195 166.622 61.195C171.376 61.195 173.473 56.8302 173.473 52.6032Z" fill="white"/>
<path d="M183.356 31.2402H188.671V36.3112H183.356V31.2402ZM183.356 40.4877H188.671V64.7599H183.356V40.4877Z" fill="white"/>
<path d="M194.451 40.4907H199.486V44.0585L199.579 44.1527C201.165 41.476 203.913 39.835 207.085 39.835C212.307 39.835 215.615 42.6529 215.615 48.0972V64.7628H210.3V49.5062C210.207 45.7029 208.714 44.0619 205.592 44.0619C202.05 44.0619 199.766 46.8799 199.766 50.4477V64.7662H194.451V40.4941V40.4907Z" fill="white"/>
<path d="M250.993 64.7623H247.264L246.379 60.8179C243.257 64.3857 240.413 65.5593 236.356 65.5593C226.38 65.5593 220.413 57.5796 220.413 47.9992C220.413 38.4188 226.38 30.4424 236.356 30.4424C243.628 30.4424 249.735 34.3398 250.619 41.8992H244.933C244.373 37.4873 240.553 35.2343 236.356 35.2343C229.224 35.2343 226.239 41.573 226.239 48.0025C226.239 54.432 229.224 60.7708 236.356 60.7708C242.323 60.8649 245.585 57.25 245.678 51.5704H236.82V47.1114H250.99V64.7623H250.993Z" fill="white"/>
<path d="M260.736 54.0083C260.736 57.8115 262.786 61.1911 267.217 61.1911C270.292 61.1911 272.158 59.8292 273.09 57.1524H278.125C276.959 62.4588 272.485 65.4146 267.217 65.4146C259.664 65.4146 255.424 60.1083 255.424 52.6464C255.424 45.7461 259.898 39.8311 267.076 39.8311C274.676 39.8311 279.337 46.7314 278.452 54.0083H260.739H260.736ZM273.136 50.4875C272.949 47.108 270.666 44.0546 267.076 44.0546C263.487 44.0546 260.876 46.8726 260.736 50.4875H273.136Z" fill="white"/>
<path d="M298.775 48.6117C298.355 45.6525 296.211 44.0585 293.276 44.0585C290.525 44.0585 286.655 45.5146 286.655 52.8857C286.655 56.9243 288.428 61.195 293.043 61.195C296.118 61.195 298.264 59.1303 298.775 55.6566H304.091C303.112 61.9482 299.243 65.4219 293.043 65.4219C285.49 65.4219 281.343 60.0214 281.343 52.8857C281.343 45.75 285.307 39.835 293.23 39.835C298.822 39.835 303.577 42.6529 304.091 48.615H298.775V48.6117Z" fill="white"/>
<path d="M308.565 31.2402H313.88V50.3001L323.482 40.4877H330.007L320.778 49.409L330.895 64.7599H324.414L317.049 52.9769L313.88 56.0739V64.7599H308.565V31.2402Z" fill="white"/>
<path d="M332.337 52.6032C332.337 45.1851 336.764 39.835 344.504 39.835C352.243 39.835 356.67 45.1884 356.67 52.6032C356.67 60.018 352.243 65.4186 344.504 65.4186C336.764 65.4186 332.337 60.0651 332.337 52.6032ZM351.355 52.6032C351.355 48.4234 349.258 44.0585 344.504 44.0585C339.749 44.0585 337.652 48.4234 337.652 52.6032C337.652 56.7831 339.749 61.195 344.504 61.195C349.258 61.195 351.355 56.8302 351.355 52.6032Z" fill="white"/>
</g>
<defs>
<clipPath id="clip0_238_5059">
<rect width="356.67" height="96" fill="white"/>
</clipPath>
</defs>
</svg>
